X:34
T:L'Allemande
R:
S:
N:
A:Champagne
G:
O:France
Z:<anamnese@laposte.net>
M:2/4
L:1/8
Q:1/4=135
K:D
DF Ad | d3 f | ed cB | AG FE | DF Ad | d3 f2 | ed cB | A4 :|
DF AF | GB BG | FG AF | F3 E | DF Ad | B3g | fe dc | d4 :|
